svg/calendar_text.svg

<svg xmlns="http://www.w3.org/2000/svg" viewBox="0 0 24 24"><path d="M14 14H7v2h7m5 3H5V8h14m0-5h-1V1h-2v2H8V1H6v2H5a2 2 0 0 0-2 2v14a2 2 0 0 0 2 2h14a2 2 0 0 0 2-2V5a2 2 0 0 0-2-2m-2 7H7v2h10z"/></svg>

<?xml version="1.0" encoding="UTF-8"?><!DOCTYPE svg PUBLIC "-//W3C//DTD SVG 1.1//EN" "http://www.w3.org/Graphics/SVG/1.1/DTD/svg11.dtd"><svg xmlns="http://www.w3.org/2000/svg" xmlns:xlink="http://www.w3.org/1999/xlink" version="1.1" id="mdi-calendar-text" width="24" height="24" viewBox="0 0 24 24"><path d="M14,14H7V16H14M19,19H5V8H19M19,3H18V1H16V3H8V1H6V3H5C3.89,3 3,3.9 3,5V19A2,2 0 0,0 5,21H19A2,2 0 0,0 21,19V5A2,2 0 0,0 19,3M17,10H7V12H17V10Z" /></svg>
